src/img/icons/team.svg

<svg width="40" height="41" viewBox="0 0 40 41" fill="none" xmlns="http://www.w3.org/2000/svg">
<path d="M13.2538 18.7834H26.7473C26.8717 18.7834 26.9909 18.734 27.0788 18.6461C27.1667 18.5582 27.2161 18.439 27.2161 18.3147V13.3671C27.2161 12.4077 26.835 11.4877 26.1566 10.8093C25.4783 10.131 24.5582 9.74989 23.5989 9.74989H22.4614C22.4107 9.74989 22.3606 9.73848 22.3149 9.7165C22.2692 9.69452 22.229 9.66255 22.1973 9.62294C22.0887 9.47931 21.9324 9.37913 21.7566 9.34036L21.5889 9.30786C21.4752 9.2858 21.3577 9.292 21.2469 9.3259C21.1361 9.3598 21.0354 9.42038 20.9534 9.50231L20.7059 9.74989H19.3114L19.0275 9.4309C18.9383 9.33065 18.8206 9.26007 18.6901 9.22861C18.5596 9.19715 18.4227 9.20632 18.2976 9.25489L18.1774 9.30176C18.0372 9.36041 17.9195 9.46246 17.8415 9.59294C17.8109 9.64107 17.7687 9.68071 17.7188 9.70819C17.6688 9.73567 17.6127 9.75009 17.5557 9.75012H16.4023C15.443 9.75012 14.523 10.1312 13.8446 10.8096C13.1663 11.4879 12.7852 12.408 12.7852 13.3673V18.3149C12.7852 18.4392 12.8346 18.5583 12.9225 18.6462C13.0104 18.734 13.1296 18.7834 13.2538 18.7834ZM20.244 10.6874L20.1029 11.0992H19.8983L19.7572 10.6874H20.244ZM20.0409 12.1078L20.6424 15.5698L19.9911 16.3305L19.362 15.5777L20.0409 12.1078ZM13.7229 13.3671C13.7237 12.6566 14.0063 11.9755 14.5087 11.4732C15.011 10.9708 15.6921 10.6882 16.4026 10.6874H17.5562C17.7364 10.6873 17.9144 10.6489 18.0786 10.5748C18.2428 10.5008 18.3893 10.3927 18.5086 10.2577L18.6883 10.4598L19.1548 11.7525L18.3989 15.617C18.3855 15.6855 18.3876 15.7561 18.4049 15.8237C18.4223 15.8912 18.4545 15.9541 18.4993 16.0076L19.6269 17.357C19.6706 17.4093 19.7251 17.4514 19.7868 17.4805C19.8484 17.5095 19.9157 17.5247 19.9838 17.5251H19.9866C20.0542 17.5251 20.1211 17.5104 20.1826 17.4821C20.2441 17.4538 20.2987 17.4125 20.3427 17.3611L21.498 16.0118C21.5429 15.9593 21.5756 15.8976 21.5939 15.831C21.6122 15.7644 21.6156 15.6946 21.6037 15.6266L20.9095 11.6344L21.308 10.4736L21.5157 10.2658C21.6302 10.3933 21.7693 10.4963 21.9245 10.5687C22.0798 10.641 22.2481 10.6813 22.4194 10.687C22.4278 10.6875 22.4362 10.6877 22.4447 10.6877H23.5989C24.3094 10.6885 24.9905 10.9711 25.4928 11.4735C25.9952 11.9758 26.2778 12.6569 26.2786 13.3674V17.8462H13.7226L13.7229 13.3671Z" fill="#5FBE3F"/>
<path d="M19.9995 9.20947C20.8393 9.2085 21.6444 8.87448 22.2382 8.28068C22.832 7.68689 23.166 6.88181 23.167 6.04205V4.24283C23.1628 3.4055 22.8272 2.60387 22.2337 2.01325C21.6401 1.42263 20.8368 1.09106 19.9995 1.09106C19.1621 1.09106 18.3589 1.42263 17.7653 2.01325C17.1717 2.60387 16.8362 3.4055 16.832 4.24283V6.04205C16.833 6.88182 17.167 7.68691 17.7608 8.28071C18.3547 8.87451 19.1598 9.20852 19.9995 9.20947ZM17.7697 4.24283C17.7732 3.6537 18.0097 3.08988 18.4275 2.67452C18.8453 2.25917 19.4105 2.02603 19.9996 2.02603C20.5888 2.02603 21.154 2.25917 21.5718 2.67452C21.9896 3.08988 22.2261 3.6537 22.2296 4.24283V6.04205C22.2261 6.63119 21.9896 7.19501 21.5718 7.61036C21.154 8.02572 20.5888 8.25885 19.9996 8.25885C19.4105 8.25885 18.8453 8.02572 18.4275 7.61036C18.0097 7.19501 17.7732 6.63119 17.7697 6.04205V4.24283Z" fill="#5FBE3F"/>
<path d="M24.4312 13.141H22.6992C22.5749 13.141 22.4557 13.1903 22.3678 13.2783C22.2799 13.3662 22.2305 13.4854 22.2305 13.6097C22.2305 13.734 22.2799 13.8533 22.3678 13.9412C22.4557 14.0291 22.5749 14.0785 22.6992 14.0785H24.4312C24.5556 14.0785 24.6748 14.0291 24.7627 13.9412C24.8506 13.8533 24.9 13.734 24.9 13.6097C24.9 13.4854 24.8506 13.3662 24.7627 13.2783C24.6748 13.1903 24.5556 13.141 24.4312 13.141Z" fill="#5FBE3F"/>
<path d="M6.49805 25.4685C6.62237 25.4685 6.7416 25.4192 6.8295 25.3313C6.91741 25.2433 6.9668 25.1241 6.9668 24.9998V23.0291C6.96713 22.7559 7.07581 22.494 7.26901 22.3008C7.4622 22.1076 7.72413 21.9989 7.99734 21.9986H19.5319V25.2535C19.5319 25.3778 19.5813 25.497 19.6692 25.5849C19.7571 25.6728 19.8763 25.7222 20.0006 25.7222C20.1249 25.7222 20.2442 25.6728 20.3321 25.5849C20.42 25.497 20.4694 25.3778 20.4694 25.2535V21.9986H32.0039C32.2771 21.9989 32.539 22.1076 32.7322 22.3008C32.9254 22.494 33.0341 22.7559 33.0345 23.0291V24.9998C33.0345 25.1241 33.0838 25.2433 33.1717 25.3313C33.2597 25.4192 33.3789 25.4685 33.5032 25.4685C33.6275 25.4685 33.7468 25.4192 33.8347 25.3313C33.9226 25.2433 33.972 25.1241 33.972 24.9998V23.0291C33.9714 22.5073 33.7638 22.0071 33.3949 21.6382C33.0259 21.2692 32.5257 21.0617 32.0039 21.0611H20.4694V20.0493C20.4694 19.9249 20.42 19.8057 20.3321 19.7178C20.2442 19.6299 20.1249 19.5805 20.0006 19.5805C19.8763 19.5805 19.7571 19.6299 19.6692 19.7178C19.5813 19.8057 19.5319 19.9249 19.5319 20.0493V21.0611H7.99734C7.47558 21.0617 6.97534 21.2692 6.60639 21.6382C6.23744 22.0071 6.0299 22.5073 6.0293 23.0291V24.9998C6.0293 25.1241 6.07868 25.2433 6.16659 25.3313C6.2545 25.4192 6.37373 25.4685 6.49805 25.4685Z" fill="#5FBE3F"/>
<path d="M6.49742 33.5157C7.17823 33.515 7.83096 33.2442 8.31236 32.7628C8.79376 32.2814 9.0645 31.6287 9.06516 30.9479V29.5485C9.06516 28.8675 8.79463 28.2144 8.31308 27.7328C7.83154 27.2513 7.17843 26.9807 6.49742 26.9807C5.81642 26.9807 5.1633 27.2513 4.68176 27.7328C4.20022 28.2144 3.92969 28.8675 3.92969 29.5485V30.9479C3.93035 31.6287 4.20109 32.2814 4.68249 32.7628C5.16388 33.2442 5.81661 33.515 6.49742 33.5157ZM4.86711 29.5485C4.86711 29.1161 5.03887 28.7015 5.34459 28.3957C5.65032 28.09 6.06498 27.9182 6.49734 27.9182C6.92971 27.9182 7.34437 28.09 7.65009 28.3957C7.95582 28.7015 8.12758 29.1161 8.12758 29.5485V30.9479C8.12708 31.3801 7.95517 31.7945 7.64955 32.1001C7.34393 32.4057 6.92956 32.5777 6.49734 32.5782C6.06512 32.5777 5.65074 32.4057 5.34511 32.1001C5.03949 31.7945 4.86759 31.3801 4.86711 30.9479V29.5485Z" fill="#5FBE3F"/>
<path d="M9.29609 34.4772H8.41156C8.37402 34.4772 8.33767 34.464 8.30898 34.4398C8.20412 34.3504 8.07668 34.2916 7.94063 34.2698C7.77059 34.2435 7.59671 34.2772 7.44881 34.3651C7.30091 34.453 7.18822 34.5897 7.13008 34.7516L6.99609 35.1251C6.96743 35.2092 6.91821 35.2848 6.85291 35.345C6.78761 35.4052 6.7083 35.4481 6.62219 35.4698C6.49687 35.4994 6.36503 35.4815 6.25222 35.4194C6.1394 35.3573 6.05364 35.2556 6.01156 35.1339L5.87875 34.7483C5.84349 34.6465 5.7863 34.5537 5.71121 34.4765C5.63611 34.3992 5.54496 34.3394 5.4442 34.3012C5.34344 34.2631 5.23552 34.2475 5.12809 34.2557C5.02066 34.2639 4.91634 34.2956 4.8225 34.3485C4.78076 34.3704 4.74237 34.3982 4.70852 34.431C4.67873 34.4607 4.63834 34.4774 4.59625 34.4774H3.69883C2.92508 34.4774 2.18302 34.7848 1.63587 35.3319C1.08873 35.879 0.781312 36.621 0.78125 37.3948V38.994C0.78125 39.1184 0.830636 39.2376 0.918544 39.3255C1.00645 39.4134 1.12568 39.4628 1.25 39.4628H11.7449C11.8692 39.4628 11.9885 39.4134 12.0764 39.3255C12.1643 39.2376 12.2137 39.1184 12.2137 38.994V37.3948C12.2137 37.0117 12.1382 36.6323 11.9916 36.2783C11.845 35.9243 11.6301 35.6027 11.3592 35.3317C11.0882 35.0608 10.7666 34.8459 10.4126 34.6993C10.0586 34.5526 9.67924 34.4772 9.29609 34.4772ZM11.2762 38.5253H1.71875V37.3948C1.71933 36.8699 1.92813 36.3665 2.29934 35.9953C2.67055 35.6241 3.17385 35.4153 3.69883 35.4147H4.59617C4.76329 35.4149 4.92822 35.3767 5.0782 35.303L5.12508 35.4391C5.22334 35.7243 5.4077 35.9719 5.6527 36.1478C5.8977 36.3236 6.19126 36.4191 6.49285 36.421C6.79444 36.4229 7.08919 36.3312 7.3364 36.1584C7.58361 35.9857 7.7711 35.7404 7.87297 35.4565L7.92836 35.3024C8.06744 35.3709 8.21956 35.409 8.37453 35.4141C8.38234 35.4141 8.39062 35.4147 8.39875 35.4147H9.29609C9.82107 35.4153 10.3244 35.6241 10.6956 35.9953C11.0668 36.3665 11.2756 36.8699 11.2762 37.3948V38.5253Z" fill="#5FBE3F"/>
<path d="M17.4316 29.5485V30.9479C17.4316 31.6289 17.7022 32.282 18.1837 32.7635C18.6653 33.2451 19.3184 33.5156 19.9994 33.5156C20.6804 33.5156 21.3335 33.2451 21.815 32.7635C22.2966 32.282 22.5671 31.6289 22.5671 30.9479V29.5485C22.5671 28.8675 22.2966 28.2144 21.815 27.7328C21.3335 27.2513 20.6804 26.9807 19.9994 26.9807C19.3184 26.9807 18.6653 27.2513 18.1837 27.7328C17.7022 28.2144 17.4316 28.8675 17.4316 29.5485ZM21.6296 29.5485V30.9479C21.6296 31.3802 21.4579 31.7949 21.1521 32.1006C20.8464 32.4063 20.4317 32.5781 19.9994 32.5781C19.567 32.5781 19.1524 32.4063 18.8466 32.1006C18.5409 31.7949 18.3691 31.3802 18.3691 30.9479V29.5485C18.3691 29.1161 18.5409 28.7015 18.8466 28.3957C19.1524 28.09 19.567 27.9182 19.9994 27.9182C20.4317 27.9182 20.8464 28.09 21.1521 28.3957C21.4579 28.7015 21.6296 29.1161 21.6296 29.5485Z" fill="#5FBE3F"/>
<path d="M22.798 34.4772H21.9135C21.876 34.4772 21.8396 34.464 21.8109 34.4398C21.7061 34.3504 21.5786 34.2916 21.4426 34.2698C21.2725 34.2435 21.0986 34.2772 20.9507 34.3651C20.8028 34.453 20.6901 34.5897 20.632 34.7516L20.498 35.1251C20.4693 35.2092 20.4201 35.2848 20.3548 35.345C20.2895 35.4052 20.2102 35.4481 20.1241 35.4698C19.9988 35.4994 19.8669 35.4815 19.7541 35.4194C19.6413 35.3573 19.5556 35.2556 19.5135 35.1339L19.3807 34.7483C19.3454 34.6465 19.2882 34.5537 19.2132 34.4765C19.1381 34.3992 19.0469 34.3394 18.9462 34.3012C18.8454 34.2631 18.7375 34.2475 18.63 34.2557C18.5226 34.2639 18.4183 34.2956 18.3245 34.3485C18.2827 34.3704 18.2443 34.3982 18.2105 34.431C18.1807 34.4607 18.1403 34.4774 18.0982 34.4774H17.2008C16.427 34.4774 15.6849 34.7848 15.1377 35.3319C14.5906 35.8791 14.2832 36.6212 14.2832 37.395V38.9943C14.2832 39.1186 14.3326 39.2378 14.4205 39.3257C14.5084 39.4137 14.6276 39.463 14.752 39.463H25.247C25.3713 39.463 25.4905 39.4137 25.5784 39.3257C25.6663 39.2378 25.7157 39.1186 25.7157 38.9943V37.3951C25.7157 37.0119 25.6403 36.6325 25.4937 36.2785C25.3471 35.9244 25.1322 35.6028 24.8612 35.3318C24.5903 35.0609 24.2686 34.8459 23.9146 34.6993C23.5606 34.5527 23.1812 34.4772 22.798 34.4772ZM24.7782 38.5253H15.2207V37.3948C15.2213 36.8699 15.4301 36.3665 15.8013 35.9953C16.1725 35.6241 16.6758 35.4153 17.2008 35.4147H18.0981C18.2653 35.4149 18.4302 35.3767 18.5802 35.303L18.6271 35.4391C18.7254 35.7243 18.9098 35.9719 19.1548 36.1477C19.3998 36.3236 19.6933 36.4191 19.9949 36.421C20.2965 36.4229 20.5913 36.3312 20.8385 36.1584C21.0857 35.9856 21.2732 35.7404 21.3751 35.4565L21.4304 35.3024C21.5695 35.371 21.7216 35.409 21.8766 35.4141C21.8845 35.4141 21.8923 35.4147 21.9008 35.4147H22.7981C23.3231 35.4153 23.8264 35.6241 24.1976 35.9953C24.5688 36.3665 24.7776 36.8699 24.7782 37.3948V38.5253Z" fill="#5FBE3F"/>
<path d="M30.9355 29.5485V30.9479C30.9355 31.6289 31.2061 32.282 31.6876 32.7635C32.1692 33.2451 32.8223 33.5156 33.5033 33.5156C34.1843 33.5156 34.8374 33.2451 35.3189 32.7635C35.8005 32.282 36.071 31.6289 36.071 30.9479V29.5485C36.071 28.8675 35.8005 28.2144 35.3189 27.7328C34.8374 27.2513 34.1843 26.9807 33.5033 26.9807C32.8223 26.9807 32.1692 27.2513 31.6876 27.7328C31.2061 28.2144 30.9355 28.8675 30.9355 29.5485ZM35.1335 29.5485V30.9479C35.133 31.3801 34.9611 31.7944 34.6555 32.1001C34.3499 32.4057 33.9356 32.5776 33.5034 32.5782C33.0711 32.5776 32.6568 32.4057 32.3512 32.1001C32.0455 31.7944 31.8736 31.3801 31.8731 30.9479V29.5485C31.8731 29.1161 32.0449 28.7015 32.3506 28.3957C32.6563 28.09 33.071 27.9182 33.5034 27.9182C33.9357 27.9182 34.3504 28.09 34.6561 28.3957C34.9618 28.7015 35.1336 29.1161 35.1336 29.5485H35.1335Z" fill="#5FBE3F"/>
<path d="M36.3019 34.4772H35.4174C35.3799 34.4773 35.3435 34.464 35.3148 34.4398C35.21 34.3504 35.0825 34.2916 34.9464 34.2698C34.7764 34.2435 34.6025 34.2772 34.4546 34.3651C34.3067 34.453 34.194 34.5897 34.1359 34.7516L34.0019 35.1251C33.9732 35.2092 33.924 35.2848 33.8587 35.345C33.7933 35.4052 33.714 35.4481 33.6279 35.4698C33.5026 35.4994 33.3708 35.4815 33.258 35.4194C33.1452 35.3573 33.0594 35.2556 33.0173 35.1339L32.8845 34.7483C32.8493 34.6465 32.7921 34.5537 32.717 34.4765C32.6419 34.3992 32.5507 34.3394 32.45 34.3012C32.3492 34.2631 32.2413 34.2475 32.1339 34.2557C32.0264 34.2639 31.9221 34.2956 31.8283 34.3485C31.7865 34.3704 31.7481 34.3982 31.7142 34.431C31.6995 34.4457 31.682 34.4574 31.6627 34.4654C31.6434 34.4734 31.6228 34.4774 31.602 34.4774H30.7046C29.9308 34.4774 29.1888 34.7848 28.6416 35.332C28.0945 35.8791 27.7871 36.6212 27.7871 37.395V38.9943C27.7871 39.1186 27.8365 39.2378 27.9244 39.3257C28.0123 39.4137 28.1315 39.463 28.2559 39.463H38.7508C38.8751 39.463 38.9943 39.4137 39.0822 39.3257C39.1702 39.2378 39.2195 39.1186 39.2195 38.9943V37.3951C39.2196 37.0119 39.1441 36.6325 38.9975 36.2785C38.8509 35.9244 38.636 35.6028 38.3651 35.3318C38.0941 35.0609 37.7725 34.8459 37.4185 34.6993C37.0645 34.5527 36.6851 34.4772 36.3019 34.4772ZM38.282 38.5253H28.7246V37.3948C28.7252 36.8699 28.9339 36.3665 29.3051 35.9953C29.6763 35.6241 30.1796 35.4153 30.7046 35.4147H31.6023C31.7695 35.4149 31.9344 35.3767 32.0845 35.303L32.1313 35.4391C32.2296 35.7243 32.414 35.9719 32.659 36.1478C32.904 36.3236 33.1975 36.4191 33.4991 36.421C33.8007 36.423 34.0954 36.3312 34.3427 36.1584C34.5899 35.9857 34.7773 35.7404 34.8792 35.4565L34.9345 35.3024C35.0736 35.371 35.2258 35.409 35.3808 35.4141C35.3886 35.4141 35.3964 35.4147 35.4049 35.4147H36.3023C36.8272 35.4154 37.3304 35.6242 37.7016 35.9954C38.0727 36.3666 38.2815 36.8699 38.282 37.3948V38.5253Z" fill="#5FBE3F"/>
</svg>

<svg xmlns="http://www.w3.org/2000/svg" fill="none" viewBox="0 0 40 41"><path fill="#5FBE3F" d="M13.254 18.783h13.493a.469.469 0 0 0 .47-.468v-4.948a3.617 3.617 0 0 0-3.618-3.617H22.46a.338.338 0 0 1-.264-.127.757.757 0 0 0-.44-.283l-.168-.032a.708.708 0 0 0-.636.194l-.247.248H19.31l-.284-.32a.658.658 0 0 0-.73-.175l-.12.047a.711.711 0 0 0-.335.29.34.34 0 0 1-.286.158h-1.154a3.617 3.617 0 0 0-3.617 3.617v4.948a.468.468 0 0 0 .469.468zm6.99-8.096l-.141.412h-.205l-.14-.412h.486zm-.203 1.42l.601 3.463-.65.76-.63-.752.679-3.47zm-6.318 1.26a2.682 2.682 0 0 1 2.68-2.68h1.153a1.272 1.272 0 0 0 .953-.43l.18.203.466 1.292-.756 3.865a.47.47 0 0 0 .1.39l1.128 1.35a.469.469 0 0 0 .357.168h.003a.469.469 0 0 0 .356-.164l1.155-1.35a.47.47 0 0 0 .106-.384l-.694-3.993.398-1.16.208-.208a1.272 1.272 0 0 0 .929.422h1.154a2.682 2.682 0 0 1 2.68 2.68v4.478H13.723v-4.479z"/><path fill="#5FBE3F" d="M20 9.21a3.171 3.171 0 0 0 3.167-3.168v-1.8a3.168 3.168 0 0 0-6.335 0v1.8A3.171 3.171 0 0 0 20 9.209zm-2.23-4.967a2.23 2.23 0 0 1 4.46 0v1.799a2.23 2.23 0 0 1-4.46 0v-1.8zM24.431 13.141H22.7a.468.468 0 1 0 0 .938h1.732a.469.469 0 1 0 0-.938zM6.498 25.468A.469.469 0 0 0 6.967 25v-1.97a1.032 1.032 0 0 1 1.03-1.031h11.535v3.255a.469.469 0 0 0 .937 0v-3.255h11.535a1.032 1.032 0 0 1 1.03 1.03V25a.469.469 0 1 0 .938 0v-1.97a1.97 1.97 0 0 0-1.968-1.968H20.469V20.05a.469.469 0 1 0-.937 0v1.012H7.997A1.97 1.97 0 0 0 6.03 23.03V25a.469.469 0 0 0 .47.47zM6.497 33.516a2.57 2.57 0 0 0 2.568-2.568v-1.4a2.568 2.568 0 0 0-5.135 0v1.4a2.57 2.57 0 0 0 2.567 2.568zm-1.63-3.967a1.63 1.63 0 0 1 3.26 0v1.399a1.632 1.632 0 0 1-1.63 1.63 1.632 1.632 0 0 1-1.63-1.63v-1.4zM9.296 34.477h-.884a.159.159 0 0 1-.103-.037.741.741 0 0 0-1.179.312l-.134.373a.533.533 0 0 1-.374.345.52.52 0 0 1-.61-.336l-.133-.386a.735.735 0 0 0-1.17-.317.16.16 0 0 1-.113.046H3.7A2.918 2.918 0 0 0 .78 37.395v1.599a.469.469 0 0 0 .469.469h10.495a.469.469 0 0 0 .469-.469v-1.6a2.918 2.918 0 0 0-2.918-2.917zm1.98 4.048H1.72v-1.13a1.982 1.982 0 0 1 1.98-1.98h.897c.167 0 .332-.038.482-.112l.047.136a1.456 1.456 0 0 0 2.748.017l.055-.154c.14.069.292.107.447.112h.921a1.982 1.982 0 0 1 1.98 1.98v1.131zM17.432 29.549v1.399a2.568 2.568 0 0 0 5.135 0v-1.4a2.568 2.568 0 1 0-5.135 0zm4.198 0v1.399a1.63 1.63 0 1 1-3.26 0v-1.4a1.63 1.63 0 0 1 3.26 0zM22.798 34.477h-.884a.16.16 0 0 1-.103-.037.741.741 0 0 0-1.179.312l-.134.373a.533.533 0 0 1-.374.345.52.52 0 0 1-.61-.336l-.133-.386a.736.736 0 0 0-1.056-.4.49.49 0 0 0-.114.083.16.16 0 0 1-.113.046h-.897a2.918 2.918 0 0 0-2.918 2.918v1.6a.469.469 0 0 0 .469.468h10.495a.468.468 0 0 0 .469-.469v-1.599a2.918 2.918 0 0 0-2.918-2.918zm1.98 4.048h-9.557v-1.13a1.983 1.983 0 0 1 1.98-1.98h.897c.167 0 .332-.038.482-.112l.047.136a1.456 1.456 0 0 0 2.748.017l.055-.154c.14.069.292.107.447.112h.921a1.982 1.982 0 0 1 1.98 1.98v1.131zM30.936 29.549v1.399a2.568 2.568 0 0 0 5.135 0v-1.4a2.568 2.568 0 1 0-5.135 0zm4.197 0v1.399a1.632 1.632 0 0 1-1.63 1.63 1.633 1.633 0 0 1-1.63-1.63v-1.4a1.63 1.63 0 0 1 3.26 0zM36.302 34.477h-.885a.159.159 0 0 1-.102-.037.741.741 0 0 0-1.179.312l-.134.373a.533.533 0 0 1-.374.345.52.52 0 0 1-.61-.336l-.133-.386a.734.734 0 0 0-1.17-.317.159.159 0 0 1-.113.046h-.897a2.917 2.917 0 0 0-2.918 2.918v1.6a.469.469 0 0 0 .469.468H38.75a.468.468 0 0 0 .468-.469v-1.599a2.916 2.916 0 0 0-2.917-2.918zm1.98 4.048h-9.557v-1.13a1.982 1.982 0 0 1 1.98-1.98h.897c.168 0 .332-.038.482-.112l.047.136a1.457 1.457 0 0 0 2.748.017l.056-.154c.139.069.29.107.446.112h.921a1.983 1.983 0 0 1 1.98 1.98v1.131z"/></svg>
